X:76
T:Down the Broom
Z: id:dc-reel-69
M:C
L:1/8
K:A Dorian
EAAG A2Bd|egdg egdc|BGGF G2GE|D2B,D GABG|!
EAAG ABcd|egg2 egdB|dgg2 gaba|gedB BAA2:|!
a2ea ageg|a2bg agef|g2dg egde|geaf gede|!
a2ea ageg|agbg ageg|dgg2 gaba|gedB BAA2:|!

